images/sc2/START.svg

<?xml version='1.0' encoding='utf-8'?>
<svg xmlns="http://www.w3.org/2000/svg" viewBox="919.582 139.829 108.923 55.4616" width="43.5694" height="22.1846"><path d="M 975.5711 145.6640 C 941.4624 145.6640 939.3031 145.9926 933.1531 152.1426 C 927.2427 158.0530 925.4169 165.5327 927.7781 174.1640 C 929.1027 179.0057 936.6820 186.7413 941.7059 188.3808 C 944.0356 189.1411 955.3507 189.4552 976.1727 189.3379 C 1010.5998 189.1440 1010.1493 189.2231 1016.8113 182.1660 C 1020.9296 177.8035 1022.5040 173.7067 1022.5750 167.1640 C 1022.6700 158.4153 1017.5208 150.5857 1009.4559 147.2168 C 1006.3736 145.9292 1000.5807 145.6640 975.5711 145.6640 Z  M 975.1844 149.6640 C 1008.3256 149.6640 1008.5331 149.6940 1013.8602 155.3242 C 1021.4687 163.3658 1019.8673 176.1958 1010.4793 182.4121 L 1006.3250 185.1640 L 976.2488 185.3496 C 959.2460 185.4553 944.7642 185.1191 942.9305 184.5742 C 936.4170 182.6385 930.6965 174.3782 930.6785 166.8808 C 930.6715 163.9844 933.2320 157.8094 935.4617 155.3437 C 936.4033 154.3026 938.8430 152.5981 940.8836 151.5566 C 944.2849 149.8206 947.1408 149.6640 975.1844 149.6640 Z  M 974.9227 157.8867 C 962.5996 157.6636 959.6727 157.8722 959.6727 158.9707 C 959.6727 159.7184 959.9852 160.6407 960.3660 161.0215 C 960.7468 161.4022 967.6093 161.5910 975.6160 161.4394 C 987.7670 161.2093 990.1727 160.9160 990.1727 159.6640 C 990.1727 158.4083 987.6889 158.1178 974.9227 157.8867 Z  M 974.9227 165.8867 C 962.5996 165.6636 959.6727 165.8722 959.6727 166.9707 C 959.6727 167.7184 959.9852 168.6407 960.3660 169.0215 C 960.7468 169.4022 967.6093 169.5910 975.6160 169.4394 C 987.7670 169.2093 990.1727 168.9160 990.1727 167.6640 C 990.1727 166.4083 987.6889 166.1178 974.9227 165.8867 Z  M 975.2469 173.6640 C 962.9358 173.6640 959.6727 173.9420 959.6727 174.9961 C 959.6727 175.7294 959.9852 176.6407 960.3660 177.0215 C 960.7468 177.4022 967.6044 177.5910 975.6043 177.4394 C 988.5336 177.1943 990.1866 176.9696 990.4852 175.4140 C 990.7934 173.8079 989.5400 173.6640 975.2469 173.6640 Z " style="fill:#000000" /></svg>

<svg xmlns="http://www.w3.org/2000/svg" width="43.569" height="22.185" viewBox="919.582 139.829 108.923 55.462"><path d="M975.571 145.664c-34.109 0-36.268.329-42.418 6.479-5.91 5.91-7.736 13.39-5.375 22.021 1.325 4.842 8.904 12.577 13.928 14.217 2.33.76 13.645 1.074 34.467.957 34.427-.194 33.976-.115 40.638-7.172 4.119-4.362 5.693-8.46 5.764-15.002.095-8.749-5.054-16.578-13.12-19.947-3.081-1.288-8.874-1.553-33.884-1.553m-.387 4c33.142 0 33.35.03 38.676 5.66 7.609 8.042 6.007 20.872-3.38 27.088l-4.155 2.752-30.076.186c-17.003.105-31.485-.23-33.318-.776-6.514-1.936-12.235-10.196-12.253-17.693-.006-2.897 2.554-9.072 4.784-11.537.941-1.041 3.381-2.746 5.422-3.787 3.4-1.736 6.257-1.893 34.3-1.893m-.261 8.223c-12.323-.223-15.25-.015-15.25 1.084 0 .747.312 1.67.693 2.05.38.381 7.243.57 15.25.418 12.151-.23 14.557-.523 14.557-1.775 0-1.256-2.484-1.546-15.25-1.777m0 8c-12.323-.223-15.25-.015-15.25 1.084 0 .747.312 1.67.693 2.05.38.381 7.243.57 15.25.418 12.151-.23 14.557-.523 14.557-1.775 0-1.256-2.484-1.546-15.25-1.777m.324 7.777c-12.311 0-15.574.278-15.574 1.332 0 .733.312 1.645.693 2.025.38.381 7.238.57 15.238.418 12.93-.245 14.583-.47 14.881-2.025.308-1.606-.945-1.75-15.238-1.75" style="fill:#000"/></svg>
